X: 73
T: the Cup of Tea
R: reel
Z: 2012 John Chambers <jc@trillian.mit.edu>
B: "100 Essential Irish Session Tunes" 1995 Dave Mallinson, ed.
M: 4/4
L: 1/8
K: Edor
A |\
"Em"BAGF GEEF | GEBE GEEA | "Em"BAGF GEEG | "D"FDAG FDDA |
"Em"BAGF GEEF | GEBE GEEA | "Em"BAGF GABc | "D"dBAG FD D :|
|: A |\
"D"d2eg fdec | "Bm"d2eg fB~B2 | "Em"d2eg fdec | "G"dBAG "D"FDDA |
"D"d2eg fdec | "D7"dfaf "G"g2fg | "D"afge "Bm"fdec | "G"dBAG "D"FD D :|
|: A |\
"D"FAdA FABA | FAdA "E7"FEEG | "D"FAdA FABc | "G"dBAG "D"FDDA |
"D"FAdA FABA | FAde "A7"fede | "Bm"f2ec "G"dBAF | "A7"GBAG "D"FD D :|
